X:4
T:The Mongrel
R:reel
C:Otis Tomas
O:contemporary Cape Breton
D:Lisa MacArthur
Z:Paul Stewart Cranford (P.S.C.), <http://www.cranfordpub.com>
L:1/8
M:C|
Q:333
K:Gdor
GFDF G2 DF|GBAF GFDE|F2 EF DCA,C|F2 EF ABcA|
GFDF G2 DF|GBAF GFDE|FGAc dfeg|fdcA G3 z:|
|:dg (a/g/^f) g2 =fc|dgag fd d2|FGAc dagf|ecgc acgc|
dg (a/g/^f) g2 =fc|dgag fd d2|FGAc dfeg|fdcA G3 z:|
